images/icons/svg/vanuatulow.svg

<?xml version="1.0" encoding="UTF-8" standalone="no"?>
<!-- (c) ammap.com | SVG map of Vanuatu - Low -->

<svg
   xmlns:amcharts="http://amcharts.com/ammap"
   xmlns:dc="http://purl.org/dc/elements/1.1/"
   xmlns:cc="http://creativecommons.org/ns#"
   xmlns:rdf="http://www.w3.org/1999/02/22-rdf-syntax-ns#"
   xmlns:svg="http://www.w3.org/2000/svg"
   xmlns="http://www.w3.org/2000/svg"
   xmlns:sodipodi="http://sodipodi.sourceforge.net/DTD/sodipodi-0.dtd"
   xmlns:inkscape="http://www.inkscape.org/namespaces/inkscape"
   version="1.1"
   id="svg14"
   sodipodi:docname="vanuatulow.svg"
   width="800.11578"
   height="1782.0129"
   inkscape:version="0.92.2 (5c3e80d, 2017-08-06)">
  <metadata
     id="metadata18">
    <rdf:RDF>
      <cc:Work
         rdf:about="">
        <dc:format>image/svg+xml</dc:format>
        <dc:type
           rdf:resource="http://purl.org/dc/dcmitype/StillImage" />
        <dc:title></dc:title>
      </cc:Work>
    </rdf:RDF>
  </metadata>
  <sodipodi:namedview
     pagecolor="#ffffff"
     bordercolor="#666666"
     borderopacity="1"
     objecttolerance="10"
     gridtolerance="10"
     guidetolerance="10"
     inkscape:pageopacity="0"
     inkscape:pageshadow="2"
     inkscape:window-width="1920"
     inkscape:window-height="1017"
     id="namedview16"
     showgrid="false"
     fit-margin-top="0"
     fit-margin-left="0"
     fit-margin-right="0"
     fit-margin-bottom="0"
     inkscape:zoom="2.36"
     inkscape:cx="50.068159"
     inkscape:cy="1731.5736"
     inkscape:window-x="-8"
     inkscape:window-y="-8"
     inkscape:window-maximized="1"
     inkscape:current-layer="svg14" />
  <defs
     id="defs4">
    <style
       type="text/css"
       id="style2">
			.land
			{
				fill: #CCCCCC;
				fill-opacity: 1;
				stroke:white;
				stroke-opacity: 1;
				stroke-width:0.5;
			}
		</style>
    <amcharts:ammap
       projection="mercator"
       leftLongitude="166.0417588"
       topLatitude="-13.0724554"
       rightLongitude="170.2384597"
       bottomLatitude="-20.2522929" />
    <!-- All areas are listed in the line below. You can use this list in your script. -->
    <!--{id:"VU-SEE"},{id:"VU-PAM"},{id:"VU-MAP"},{id:"VU-TAE"},{id:"VU-SAM"},{id:"VU-TOB"}-->
  </defs>
  <g
     id="g12"
     transform="translate(0.06815913,0.43941554)">
    <path
       id="VU-SEE"
       title="Shefa"
       class="land"
       d="m 430.15,1103.95 -15.45,2.31 -27.41,39.77 5.62,5.68 12.21,-10.98 13.29,2.66 5.33,11.07 -13.62,8.6 16.21,-6.81 -1.49,8.68 8.12,-3.41 10.64,10.8 36.05,-6.74 10.33,-28.03 -9.64,0.2 -24.67,-36.84 z m -28.08,5.18 19.47,-10.86 -13.41,-1.13 z m 37.67,-22.64 -10.61,-14.87 1.6,12.6 z m -6.84,-95.88 19.43,-11.62 -17.98,3.23 -6.32,7.4 z m 53.89,-38.69 6.34,-10.52 -4.42,-4.54 -10.55,4.36 -0.29,10.78 z m -91.45,-89.79 -9.69,-0.59 -4.16,19.48 5.51,31.46 19.7,11 27.4,-8.42 29.8,14.65 -2.32,-17.37 -22.27,-2.72 -19.01,-21.97 -10.18,2.96 z"
       inkscape:connector-curvature="0"
       style="fill:#cccccc;fill-opacity:1;stroke:#ffffff;stroke-width:0.5;stroke-opacity:1" />
    <path
       id="VU-PAM"
       title="Penama"
       class="land"
       d="m 405.25,717.59 9.72,-10.31 0.02,-18.36 -16.23,-60.93 1.03,-22.99 -11.69,-17.52 -7.67,58.84 16.65,69.94 z m -86.69,-126.8 15.74,-13.09 17.7,-34.89 -47,9.39 -31.24,31.96 14.55,8.5 z m 76.75,-27.39 1.7,-39.17 -19.32,-71.42 -4.79,6.82 9.41,52.63 0.23,58.43 h 11.36 z"
       inkscape:connector-curvature="0"
       style="fill:#cccccc;fill-opacity:1;stroke:#ffffff;stroke-width:0.5;stroke-opacity:1" />
    <path
       id="VU-MAP"
       title="Malampa"
       class="land"
       d="m 434.6,853.18 -0.25,-10.22 h -12.81 z m -25.31,-11.06 4.08,-16.04 -9.1,2.68 -4.64,13.56 z m 18.62,-43.62 -0.23,-8.76 -21.5,-13.64 -14.02,-36.44 -24.25,24.59 -37.18,13.18 25.9,23.12 28.01,8.74 z M 214.8,747.4 193.82,697.36 167.75,687.1 l -9.72,5.76 -8.98,47.46 20.32,21.42 21.21,-13.49 12.44,19.26 2.3,43.35 17.62,49.43 14.77,3.11 23.96,-21.36 35.62,11.44 17.08,-20.49 -5.03,-9.56 -11.59,10.03 4.93,-12.77 -5.28,-17.8 -51.57,-32.56 -4.87,-10.28 h -11.32 l -3.86,-14.82 -0.18,7.94 z"
       inkscape:connector-curvature="0"
       style="fill:#cccccc;fill-opacity:1;stroke:#ffffff;stroke-width:0.5;stroke-opacity:1" />
    <path
       id="VU-TAE"
       title="Tafea"
       class="land"
       d="m 787.74,1781.3 10.32,-4.82 1.72,-14.08 -16.08,-9.84 -15.57,2.22 -4.17,16.47 z m -93.17,-151.67 13.31,-30.36 -32.1,-14.57 -3.23,-35.64 -21.69,0.06 -10.2,40.74 33.03,36.78 z m -61.45,-229.5 -5.77,-20.72 -10.45,-8.23 -26.18,7.66 -4.94,56.8 68.3,30.8 12.52,-9.77 1.08,-13.92 -33.03,-29.56 17.83,-4.29 -4.81,-8.89 z"
       inkscape:connector-curvature="0"
       style="fill:#cccccc;fill-opacity:1;stroke:#ffffff;stroke-width:0.5;stroke-opacity:1" />
    <path
       id="VU-SAM"
       title="Sanma"
       class="land"
       d="m 169.52,656.02 -0.04,-24.62 -25.3,-4.94 -12.17,6.92 6.1,15.19 20.05,9.76 z m -5.75,-35.75 -4.58,-15.95 -19.15,13.76 z M 69.69,512.94 54,429.19 39.55,419.46 18.71,381.49 l -10.02,5.07 -7.96,45.7 20.71,49.09 9.33,45.84 -7.87,41.02 21.64,36.39 11.63,7.3 -0.54,16.09 14.64,7.54 21.93,-17.73 39.98,1.6 19.22,-17.24 19.75,-1.25 -16.35,-37.29 4.76,-14.96 -12.1,-13.74 0.81,-29.93 -13.07,3.23 -11.36,-28.55 9.87,-23.64 -17.85,-1.68 -10.24,7.2 -0.31,37.56 L 95,511.84 Z"
       inkscape:connector-curvature="0"
       style="fill:#cccccc;fill-opacity:1;stroke:#ffffff;stroke-width:0.5;stroke-opacity:1" />
    <path
       id="VU-TOB"
       title="Torba"
       class="land"
       d="m 238.68,263.39 -27.91,12.63 -1.49,26.99 38.17,-1.52 9.74,-26.9 z m 12.02,-72.65 -20.6,-33.77 -21.44,11.69 -0.85,16.85 16.34,29.09 8.23,-4.75 -2.74,-9.08 z m 26.54,-41.15 6.91,-5.28 -3.32,-8.93 -16.05,18.01 z m -83.26,-37.72 -0.46,-9.75 -9.06,5.1 4.5,11.49 12.59,-1.99 0.52,-6.36 z M 40.15,87.44 32.97,85.49 36.35,95.14 Z M 26.34,47.97 26.57,37.02 13.21,41.78 Z M 0.22,0 2.39,25.59 9.61,29.44 11.18,5.91 Z"
       inkscape:connector-curvature="0"
       style="fill:#cccccc;fill-opacity:1;stroke:#ffffff;stroke-width:0.5;stroke-opacity:1" />
  </g>
</svg>

<?xml version="1.0" encoding="utf-8"?>
<!-- (c) ammap.com | SVG map of Vanuatu - Low -->
<svg xmlns="http://www.w3.org/2000/svg" xmlns:amcharts="http://amcharts.com/ammap" xmlns:xlink="http://www.w3.org/1999/xlink" version="1.1">
	<defs>
		<style type="text/css">
			.land
			{
				fill: #CCCCCC;
				fill-opacity: 1;
				stroke:white;
				stroke-opacity: 1;
				stroke-width:0.5;
			}
		</style>

		<amcharts:ammap projection="mercator" leftLongitude="166.0417588" topLatitude="-13.0724554" rightLongitude="170.2384597" bottomLatitude="-20.2522929"></amcharts:ammap>

		<!-- All areas are listed in the line below. You can use this list in your script. -->
		<!--{id:"VU-SEE"},{id:"VU-PAM"},{id:"VU-MAP"},{id:"VU-TAE"},{id:"VU-SAM"},{id:"VU-TOB"}-->

	</defs>
	<g>
		<path id="VU-SEE" title="Shefa" class="land" d="M430.15,1103.95L414.7,1106.26L387.29,1146.03L392.91,1151.71L405.12,1140.73L418.41,1143.39L423.74,1154.46L410.12,1163.06L426.33,1156.25L424.84,1164.93L432.96,1161.52L443.6,1172.32L479.65,1165.58L489.98,1137.55L480.34,1137.75L455.67,1100.91L430.15,1103.95zM402.07,1109.13L421.54,1098.27L408.13,1097.14L402.07,1109.13zM439.74,1086.49L429.13,1071.62L430.73,1084.22L439.74,1086.49zM432.9,990.61L452.33,978.99L434.35,982.22L428.03,989.62L432.9,990.61zM486.79,951.92L493.13,941.4L488.71,936.86L478.16,941.22L477.87,952L486.79,951.92zM395.34,862.13L385.65,861.54L381.49,881.02L387,912.48L406.7,923.48L434.1,915.06L463.9,929.71L461.58,912.34L439.31,909.62L420.3,887.65L410.12,890.61L395.34,862.13z"/>
		<path id="VU-PAM" title="Penama" class="land" d="M405.25,717.59L414.97,707.28L414.99,688.92L398.76,627.99L399.79,605L388.1,587.48L380.43,646.32L397.08,716.26L405.25,717.59zM318.56,590.79L334.3,577.7L352,542.81L305,552.2L273.76,584.16L288.31,592.66L318.56,590.79zM395.31,563.4L397.01,524.23L377.69,452.81L372.9,459.63L382.31,512.26L382.54,570.69L393.9,570.69L395.31,563.4z"/>
		<path id="VU-MAP" title="Malampa" class="land" d="M434.6,853.18L434.35,842.96L421.54,842.96L434.6,853.18zM409.29,842.12L413.37,826.08L404.27,828.76L399.63,842.32L409.29,842.12zM427.91,798.5L427.68,789.74L406.18,776.1L392.16,739.66L367.91,764.25L330.73,777.43L356.63,800.55L384.64,809.29L427.91,798.5zM214.8,747.4L193.82,697.36L167.75,687.1L158.03,692.86L149.05,740.32L169.37,761.74L190.58,748.25L203.02,767.51L205.32,810.86L222.94,860.29L237.71,863.4L261.67,842.04L297.29,853.48L314.37,832.99L309.34,823.43L297.75,833.46L302.68,820.69L297.4,802.89L245.83,770.33L240.96,760.05L229.64,760.05L225.78,745.23L225.6,753.17L214.8,747.4z"/>
		<path id="VU-TAE" title="Tafea" class="land" d="M787.74,1781.3L798.06,1776.48L799.78,1762.4L783.7,1752.56L768.13,1754.78L763.96,1771.25L787.74,1781.3zM694.57,1629.63L707.88,1599.27L675.78,1584.7L672.55,1549.06L650.86,1549.12L640.66,1589.86L673.69,1626.64L694.57,1629.63zM633.12,1400.13L627.35,1379.41L616.9,1371.18L590.72,1378.84L585.78,1435.64L654.08,1466.44L666.6,1456.67L667.68,1442.75L634.65,1413.19L652.48,1408.9L647.67,1400.01L633.12,1400.13z"/>
		<path id="VU-SAM" title="Sanma" class="land" d="M169.52,656.02L169.48,631.4L144.18,626.46L132.01,633.38L138.11,648.57L158.16,658.33L169.52,656.02zM163.77,620.27L159.19,604.32L140.04,618.08L163.77,620.27zM69.69,512.94L54,429.19L39.55,419.46L18.71,381.49L8.69,386.56L0.73,432.26L21.44,481.35L30.77,527.19L22.9,568.21L44.54,604.6L56.17,611.9L55.63,627.99L70.27,635.53L92.2,617.8L132.18,619.4L151.4,602.16L171.15,600.91L154.8,563.62L159.56,548.66L147.46,534.92L148.27,504.99L135.2,508.22L123.84,479.67L133.71,456.03L115.86,454.35L105.62,461.55L105.31,499.11L95,511.84L69.69,512.94z"/>
		<path id="VU-TOB" title="Torba" class="land" d="M238.68,263.39L210.77,276.02L209.28,303.01L247.45,301.49L257.19,274.59L238.68,263.39zM250.7,190.74L230.1,156.97L208.66,168.66L207.81,185.51L224.15,214.6L232.38,209.85L229.64,200.77L250.7,190.74zM277.24,149.59L284.15,144.31L280.83,135.38L264.78,153.39L277.24,149.59zM193.98,111.87L193.52,102.12L184.46,107.22L188.96,118.71L201.55,116.72L202.07,110.36L193.98,111.87zM40.15,87.44L32.97,85.49L36.35,95.14L40.15,87.44zM26.34,47.97L26.57,37.02L13.21,41.78L26.34,47.97zM0.22,0L2.39,25.59L9.61,29.44L11.18,5.91L0.22,0z"/>
	</g>
</svg>
